X: 112
T: No_48_Sandy_Loam_Fields.krn
N: Derived from No_48_Sandy_Loam_Fields.krn
%%abc-version 2.0
%%abcx-abcm2ps-target-version 5.9.1 (29 Sep 2008)
%%abc-creator hum2abc beta
%%abcx-conversion-date 2019/03/15 08:37:56
%%humdrum-veritas 1389181002
%%humdrum-veritas-data 642000465
%%linebreak <none>
%%barnumbers 0
L: 1/8
M: 2/4
K: B clef=bass
[K:clef=bass][M:2/4]G,2F,G, | 
G,F,C,2 ||  
[M:3/4]G,G,F,2D,B,, ||  
[M:2/4]C,2C,2 | 
G,2F,G, | 
G,F,D,2 ||  
[M:3/4]G,F, C,3/B,,/ C,D, | 
C,2B,,2!fermata!G,,2 ||  
[M:2/4]D,2B,,C,/D,/ ||  
[M:5/8]C,2B,,G,,G,, ||  
[M:3/4]C,2B,,G,, B,,G,, | 
B,,2B,,4 |]  



